X:1
T:Brig o' Aboyne
T:Brig o' Aboyne
T:Peter Milne
C:Peter Milne
L:1/8
M:4/4
K:D
V:1 treble 
V:1
 G | F<A(A>B) (B/A/).G/.F/ d>B | A<F{F} d>B{B} B>FE>G | F<A(A>B) (B/A/)G/F/{F} d>B |1 %4
 (A>F) (A/G/).F/.E/ (D2 D)G :|2 (A>F) (A/G/)F/E/ D<d d || A | d>f(a>f) (b/a/).g/.f/ a>f | %8

